Sources/FrostedUI/Resources/Icons.xcassets/book20.imageset/book-20.svg

<svg width="20" height="20" viewBox="0 0 20 20" fill="none" xmlns="http://www.w3.org/2000/svg" data-fui-icon="true">
  <path
    d="M14.4785 1.07715C16.268 1.08463 18.0677 1.67389 19.3799 2.70312C19.8054 3.03705 20 3.53876 20 4.01465V17.7676C19.9998 18.1992 19.725 18.5113 19.4248 18.6436C19.1293 18.7736 18.7344 18.766 18.4199 18.5127C17.4026 17.693 15.8467 17.2678 14.2871 17.3174C12.7186 17.3673 11.3247 17.8893 10.5605 18.749C10.4182 18.9089 10.2141 19.001 10 19.001C9.78592 19.001 9.58177 18.9089 9.43945 18.749C8.6753 17.8893 7.28137 17.3673 5.71289 17.3174C4.1533 17.2678 2.59742 17.693 1.58008 18.5127C1.26558 18.766 0.870723 18.7736 0.575195 18.6436C0.275027 18.5113 0.000177077 18.1992 0 17.7676V4.01172C1.47424e-05 3.5332 0.196432 3.0356 0.620117 2.70312C1.93229 1.67391 3.73201 1.08463 5.52148 1.07715C7.09077 1.07063 8.70755 1.51335 10 2.5625C11.2924 1.51335 12.9092 1.07063 14.4785 1.07715ZM5.52832 2.57715C4.03928 2.58333 2.57084 3.07987 1.5459 3.88379C1.53035 3.89623 1.50001 3.93287 1.5 4.01172V16.7695C2.75928 16.0747 4.30045 15.7709 5.76074 15.8174C6.97939 15.8562 8.22167 16.1434 9.25 16.7178V3.89551C8.24936 2.9876 6.91127 2.57148 5.52832 2.57715ZM14.4717 2.57715C13.0887 2.57149 11.7506 2.9876 10.75 3.89551V16.7178C11.7783 16.1434 13.0206 15.8562 14.2393 15.8174C15.6996 15.7709 17.2407 16.0747 18.5 16.7695V4.01465C18.5 3.93331 18.4679 3.89492 18.4541 3.88379C17.4292 3.07985 15.9607 2.58333 14.4717 2.57715Z"
    fill="currentColor"
  />
</svg>

<svg xmlns="http://www.w3.org/2000/svg" width="20" height="20" fill="none" data-fui-icon="true" viewBox="0 0 20 20"><path fill="currentColor" d="M14.479 1.077c1.789.008 3.589.597 4.9 1.626.426.334.621.836.621 1.312v13.753a.96.96 0 0 1-.575.876.98.98 0 0 1-1.005-.131c-1.017-.82-2.573-1.245-4.133-1.196-1.568.05-2.962.572-3.727 1.432a.75.75 0 0 1-1.12 0c-.765-.86-2.159-1.382-3.727-1.432-1.56-.05-3.116.376-4.133 1.196a.98.98 0 0 1-1.005.13.96.96 0 0 1-.575-.875V4.012c0-.479.196-.976.62-1.309 1.312-1.03 3.112-1.618 4.901-1.626 1.57-.006 3.187.436 4.479 1.486 1.292-1.05 2.91-1.492 4.479-1.486m-8.95 1.5c-1.49.006-2.958.503-3.983 1.307-.016.012-.046.049-.046.128V16.77c1.26-.695 2.8-1 4.26-.953 1.22.04 2.462.326 3.49.9V3.897c-1-.908-2.339-1.325-3.722-1.319m8.943 0c-1.383-.006-2.721.41-3.722 1.319v12.822c1.028-.575 2.27-.862 3.49-.9 1.46-.047 3 .257 4.26.952V4.015c0-.082-.032-.12-.046-.131-1.025-.804-2.493-1.3-3.982-1.307"/></svg>
